X:1
T:Title
%%score ( 1 2 ) { 3 | 4 }
L:1/8
Q:1/4=108
M:2/2
K:Eb
V:1 treble nm="Grand Piano, Soprano"
V:2 treble 
V:3 bass nm="Choir Pad, Braunschweig, 87.87 D"
V:4 bass 
V:1
 E2 [EG]2- [EG][EG] [EG]2 | [B,F]2 [B,F]2 [B,E]2 [B,E]2 | [B,G]2 [DB]2- [DB][DB] [DB]2 | %3
w: By~James~McGranahan,~1887 * * * *|||
 [DA]2 [EG]2 [GB]4 | [GB]2 [Ac]2- [Ac][Ac] [Ac]2 | [Ad]2 [Ge]2- [Ge][Ge] [Ge]2 | %6
w: |||
 [Ge]2 [Fd]2 [Ec]2 [DB]2 | [C=A]2 [Ec]2 [DB]4 | B2 B6 | z2 B6 | [GB]2 [Ac]2 [Ad]2 [Be]2 | %11
w: |||||
 [Af]2 [Ge]4 [Fd]2 | [Bd]2 e2- [Ae-]2 [Ge]2 | [Be]2 e2- [Ge-]2 [Ae]2 | [Ac]2 [GB]2 E2 [DG]2- | %15
w: ||||
 [DG][DF] [DF]4 E2- | E8 |] %17
w: ||
V:2
 x8 | x8 | x8 | x8 | x8 | x8 | x8 | x8 | DE F2 G2 A2 | [AB]2 G2 F2 E2 | x8 | x8 | z2 B2 z4 | %13
 z2 A2 z4 | x8 | x8 | x8 |] %17
V:3
 G,2 B,2- B,B, B,2 | A,2 A,2 G,2 G,2 | E,2 F,2- F,F, F,2 | B,2 B,2 B,4 | E2 E2- EE E2 | %5
 B,2 B,2- B,B, B,2 | B,2 B,2 =A,2 B,2 | F,2 F,2 F,4 | F,2 B,2 B,2 B,2 | D2 E2 D2 E2 | %10
 E2 E2[K:bass] B,2 B,2 | C2 B,4 B,2 | B,A, B,2 B,2 B,2 | G,2 A,2 B,2 C2 | E2 E2 G,2 B,2- | %15
 B,A, A,4 G,2- | G,8 |] %17
V:4
 E,2 E,2- E,E, E,2 | E,2 E,2 E,2 E,2 | z2 B,,2- B,,B,, B,,2 | B,,2 E,2 E,4 | E,2 A,2- A,A, A,2 | %5
 F,2 E,2- E,E, E,2 | E,2 F,2 F,2 F,2 | z2 B,,2 B,,4 | B,,C, D,2 E,2 F,2 | B,,2 E,2 F,2 G,2 | %10
 E,2 A,2 F,2 G,2 | .A,4 z4 | z2 G,2 F,2 E,2 | _D,2 C,2 B,,2 A,,2 | A,,2 B,,2 B,,2 B,,2- | %15
 B,,B,, B,,4 E,2- | E,8 |] %17

